Newaita-dark/actions/22/gnumeric-row-size.svg

<svg height="22" viewBox="0 0 22 22" width="22" xmlns="http://www.w3.org/2000/svg"><g fill="#e0e0e0"><path d="m19.785156 8.371094h-17.738281c-.125 0-.226563.101562-.226563.226562v.441406c0 .125.101563.230469.226563.230469h17.738281c.125 0 .226563-.105469.226563-.230469v-.441406c0-.125-.101563-.226562-.226563-.226562zm0 0"/><path d="m19.785156 12.917969h-17.738281c-.125 0-.226563.101562-.226563.226562v.445313c0 .125.101563.226562.226563.226562h17.738281c.125 0 .226563-.101562.226563-.226562v-.445313c0-.125-.101563-.226562-.226563-.226562zm0 0"/><path d="m7.730469 15.625h6.367187l-3.183594 4.546875zm0 0"/><path d="m7.730469 6.550781h6.367187l-3.183594-4.546875zm0 0"/><path d="m20.011719 8.585938v5.003906c0 .125-.101563.226562-.226563.226562h-.457031c-.125 0-.226563-.101562-.226563-.226562v-5.003906c0-.125.101563-.226563.226563-.226563h.457031c.125 0 .226563.101563.226563.226563zm0 0"/><path d="m2.730469 8.585938v5.003906c0 .125-.101563.226562-.230469.226562h-.453125c-.125 0-.226563-.101562-.226563-.226562v-5.003906c0-.125.101563-.226563.226563-.226563h.453125c.128906 0 .230469.101563.230469.226563zm0 0"/><path d="m11.371094 8.585938v5.003906c0 .125-.101563.226562-.230469.226562h-.453125c-.125 0-.226562-.101562-.226562-.226562v-5.003906c0-.125.101562-.226563.226562-.226563h.453125c.128906 0 .230469.101563.230469.226563zm0 0"/><path d="m7.277344 8.585938v5.003906c0 .125-.101563.226562-.226563.226562h-.457031c-.125 0-.226562-.101562-.226562-.226562v-5.003906c0-.125.101562-.226563.226562-.226563h.457031c.125 0 .226563.101563.226563.226563zm0 0"/><path d="m15.464844 8.585938v5.003906c0 .125-.105469.226562-.230469.226562h-.453125c-.125 0-.226562-.101562-.226562-.226562v-5.003906c0-.125.101562-.226563.226562-.226563h.453125c.125 0 .230469.101563.230469.226563zm0 0"/></g></svg>

<?xml version="1.0" encoding="UTF-8"?>
<svg xmlns="http://www.w3.org/2000/svg" xmlns:xlink="http://www.w3.org/1999/xlink" width="22px" height="22px" viewBox="0 0 22 22" version="1.1">
<g id="surface1">
<path style=" stroke:none;fill-rule:nonzero;fill:rgb(87.843138%,87.843138%,87.843138%);fill-opacity:1;" d="M 19.785156 8.371094 L 2.046875 8.371094 C 1.921875 8.371094 1.820312 8.472656 1.820312 8.597656 L 1.820312 9.039062 C 1.820312 9.164062 1.921875 9.269531 2.046875 9.269531 L 19.785156 9.269531 C 19.910156 9.269531 20.011719 9.164062 20.011719 9.039062 L 20.011719 8.597656 C 20.011719 8.472656 19.910156 8.371094 19.785156 8.371094 Z M 19.785156 8.371094 "/>
<path style=" stroke:none;fill-rule:nonzero;fill:rgb(87.843138%,87.843138%,87.843138%);fill-opacity:1;" d="M 19.785156 12.917969 L 2.046875 12.917969 C 1.921875 12.917969 1.820312 13.019531 1.820312 13.144531 L 1.820312 13.589844 C 1.820312 13.714844 1.921875 13.816406 2.046875 13.816406 L 19.785156 13.816406 C 19.910156 13.816406 20.011719 13.714844 20.011719 13.589844 L 20.011719 13.144531 C 20.011719 13.019531 19.910156 12.917969 19.785156 12.917969 Z M 19.785156 12.917969 "/>
<path style=" stroke:none;fill-rule:nonzero;fill:rgb(87.843138%,87.843138%,87.843138%);fill-opacity:1;" d="M 7.730469 15.625 L 14.097656 15.625 L 10.914062 20.171875 Z M 7.730469 15.625 "/>
<path style=" stroke:none;fill-rule:nonzero;fill:rgb(87.843138%,87.843138%,87.843138%);fill-opacity:1;" d="M 7.730469 6.550781 L 14.097656 6.550781 L 10.914062 2.003906 Z M 7.730469 6.550781 "/>
<path style=" stroke:none;fill-rule:nonzero;fill:rgb(87.843138%,87.843138%,87.843138%);fill-opacity:1;" d="M 20.011719 8.585938 L 20.011719 13.589844 C 20.011719 13.714844 19.910156 13.816406 19.785156 13.816406 L 19.328125 13.816406 C 19.203125 13.816406 19.101562 13.714844 19.101562 13.589844 L 19.101562 8.585938 C 19.101562 8.460938 19.203125 8.359375 19.328125 8.359375 L 19.785156 8.359375 C 19.910156 8.359375 20.011719 8.460938 20.011719 8.585938 Z M 20.011719 8.585938 "/>
<path style=" stroke:none;fill-rule:nonzero;fill:rgb(87.843138%,87.843138%,87.843138%);fill-opacity:1;" d="M 2.730469 8.585938 L 2.730469 13.589844 C 2.730469 13.714844 2.628906 13.816406 2.5 13.816406 L 2.046875 13.816406 C 1.921875 13.816406 1.820312 13.714844 1.820312 13.589844 L 1.820312 8.585938 C 1.820312 8.460938 1.921875 8.359375 2.046875 8.359375 L 2.5 8.359375 C 2.628906 8.359375 2.730469 8.460938 2.730469 8.585938 Z M 2.730469 8.585938 "/>
<path style=" stroke:none;fill-rule:nonzero;fill:rgb(87.843138%,87.843138%,87.843138%);fill-opacity:1;" d="M 11.371094 8.585938 L 11.371094 13.589844 C 11.371094 13.714844 11.269531 13.816406 11.140625 13.816406 L 10.6875 13.816406 C 10.5625 13.816406 10.460938 13.714844 10.460938 13.589844 L 10.460938 8.585938 C 10.460938 8.460938 10.5625 8.359375 10.6875 8.359375 L 11.140625 8.359375 C 11.269531 8.359375 11.371094 8.460938 11.371094 8.585938 Z M 11.371094 8.585938 "/>
<path style=" stroke:none;fill-rule:nonzero;fill:rgb(87.843138%,87.843138%,87.843138%);fill-opacity:1;" d="M 7.277344 8.585938 L 7.277344 13.589844 C 7.277344 13.714844 7.175781 13.816406 7.050781 13.816406 L 6.59375 13.816406 C 6.46875 13.816406 6.367188 13.714844 6.367188 13.589844 L 6.367188 8.585938 C 6.367188 8.460938 6.46875 8.359375 6.59375 8.359375 L 7.050781 8.359375 C 7.175781 8.359375 7.277344 8.460938 7.277344 8.585938 Z M 7.277344 8.585938 "/>
<path style=" stroke:none;fill-rule:nonzero;fill:rgb(87.843138%,87.843138%,87.843138%);fill-opacity:1;" d="M 15.464844 8.585938 L 15.464844 13.589844 C 15.464844 13.714844 15.359375 13.816406 15.234375 13.816406 L 14.78125 13.816406 C 14.65625 13.816406 14.554688 13.714844 14.554688 13.589844 L 14.554688 8.585938 C 14.554688 8.460938 14.65625 8.359375 14.78125 8.359375 L 15.234375 8.359375 C 15.359375 8.359375 15.464844 8.460938 15.464844 8.585938 Z M 15.464844 8.585938 "/>
</g>
</svg>
